X:1
T:Title
%%score [ ( 1 2 ) ( 3 4 ) ]
L:1/8
Q:1/4=120
M:4/4
K:C
V:1 treble nm=" " snm=" "
V:2 treble 
V:3 bass nm="Midi_74"
V:4 bass 
V:1
[K:Eb]"^H.F. Lyte" B2 e2 d2 B2 | c2"^God of mercy" c2 B4 | A2 F2 G2 A2 | B2 AG"^Henry Smart" F4 | %4
w: God of mer- cy,|God of grace,|show the bright- ness|of thy * face:|
w: Let the peo- ple|praise thee, Lord;|be by all that|live a * dored:|
[M:4/4] B2 B2 G2 B2 | e2 d2 c4 | f2 c2 d2 cB | c2 =A2 B4 | B2 B2 c2 c2 | d2 d2 e4 | c2 B2 A2 G2 | %11
w: shine up- on us,|Sa- viour, shine,|fill thy Church with *|light di- vine;|and thy sav- ing|health ex- tend|un- to earth's re-|
w: let the na- tions|shout and sing|glo- ry to their *|Sa- viour King;|at thy feet their|tri- butes pay,|and thy ho- ly|
 F2 F2 E4 |"^Unison" B2 e2 d2 B2 | c2 c2 B4 | A2 F2 G2 A2 | B2 AG F4 | B2 B2 G2 B2 | e2 d2 c4 | %18
w: mo- test end.|Let the peo- ple|praise thee, Lord;|earth shall then her|fruits af * ford;|God to man his|bless- ing give,|
w: will o- bey.|||||||
 f2 c2 d2 cB | c2 =A2 B4 |"^This edition produced by Andrew Sims  2014" B2 B2 c2 c2 | d2 d2 e4 | %22
w: man to God de *|vo- ted live;|all be- low, and|all a- bove,|
w: ||||
 c2 B2 A2 G2 | F2 F2 E4 |] %24
w: one in joy, and|light, and love.|
w: ||
V:2
[K:Eb] E2 G2 F2 GF | E2 E2 E4 | E2 F2 E2 E2 | E2 FE D4 |[M:4/4] F2 D2 G2 F2 | E2 F2 F4 | %6
 F2 F2 F2 G2 | G2 F2 F4 | G2 D2 E2 E2 | A2 GF E4 | E2 E2 E2 E2 | E2 D2 E4 | x8 | x8 | x8 | x8 | %16
 x8 | x8 | x8 | x8 | x8 | x8 | x8 | x8 |] %24
V:3
[K:Eb] B,2 B,2 B,2 ED | C2 A,2 G,4 | C2 B,2 B,2 A,2 | G,2 C2 F,4 |[M:4/4] F,2 B,2 B,2 F,2 | %5
 G,=A, B,2 A,4 | C2 =A,2 B,2 ED | E2 C2 D4 | D2 B,2 G,2 CB, | A,2 B,A, G,4 | A,2 B,2 E,2 E,G, | %11
 C2 B,A, G,4 |[M:4/4] z8 | z8 | z8 | z8 |[M:4/4] z8 | z8 | z8 | z8 |[M:4/4] z8 | z8 | z8 | z8 |] %24
V:4
[K:Eb] G,2 E,2 B,2 G,2 | A,2 C,2 E,4 | C,2 D,2 E,2 C,2 | G,,2 A,,2 B,,4 |[M:4/4] D,2 B,,2 E,2 D,2 | %5
 C,2 D,E, F,4 | =A,2 F,2 B,2 G,2 | E,2 F,2 B,,4 | G,2 G,2 E,2 A,G, | F,2 B,,2 C,4 | %10
 A,,2 G,,2 C,2 B,,2 | A,,2 B,,2 E,4 |[M:4/4] x8 | x8 | x8 | x8 |[M:4/4] x8 | x8 | x8 | x8 | %20
[M:4/4] x8 | x8 | x8 | x8 |] %24

